icons/repo-locked-16.svg

<svg width="16" height="16" viewBox="0 0 16 16" fill="none" xmlns="http://www.w3.org/2000/svg">
<path d="M1 2.5C1 1.11929 2.11929 0 3.5 0H12.25C12.6642 0 13 0.335786 13 0.75V4.25C13 4.66421 12.6642 5 12.25 5C11.8358 5 11.5 4.66421 11.5 4.25V1.5H3.5C2.94772 1.5 2.5 1.94772 2.5 2.5V9.20802C2.80623 9.07422 3.14445 9 3.5 9H6.25C6.66421 9 7 9.33579 7 9.75C7 10.1642 6.66421 10.5 6.25 10.5H3.5C2.94772 10.5 2.5 10.9477 2.5 11.5C2.5 12.0523 2.94772 12.5 3.5 12.5H6.25C6.66421 12.5 7 12.8358 7 13.25C7 13.6642 6.66421 14 6.25 14H3.5C2.11929 14 1 12.8807 1 11.5V2.5Z" fill="black"/>
<path fill-rule="evenodd" clip-rule="evenodd" d="M9 10.1684V9C9 7.34315 10.3431 6 12 6C13.6569 6 15 7.34315 15 9V10.1684C15.5912 10.4493 16 11.0519 16 11.75V14.25C16 15.2165 15.2165 16 14.25 16H9.75C8.7835 16 8 15.2165 8 14.25V11.75C8 11.0519 8.40876 10.4493 9 10.1684ZM13.5 10H10.5V9C10.5 8.17157 11.1716 7.5 12 7.5C12.8284 7.5 13.5 8.17157 13.5 9V10Z" fill="black"/>
</svg>

<svg xmlns="http://www.w3.org/2000/svg" width="16" height="16" viewBox="0 0 16 16"><path d="M1 2.5A2.5 2.5 0 013.5 0h8.75a.75.75 0 01.75.75v3.5a.75.75 0 01-1.5 0V1.5h-8a1 1 0 00-1 1v6.708A2.492 2.492 0 013.5 9h2.75a.75.75 0 010 1.5H3.5a1 1 0 100 2h2.75a.75.75 0 010 1.5H3.5A2.5 2.5 0 011 11.5v-9z"/><path fill-rule="evenodd" d="M9 10.168V9a3 3 0 116 0v1.168c.591.281 1 .884 1 1.582v2.5A1.75 1.75 0 0114.25 16h-4.5A1.75 1.75 0 018 14.25v-2.5c0-.698.409-1.3 1-1.582zM13.5 10h-3V9a1.5 1.5 0 013 0v1z"/></svg>
